svgs/sharp-solid/arrow-up-square-triangle.svg

<svg xmlns="http://www.w3.org/2000/svg" viewBox="0 0 576 512"><!--! Font Awesome Pro 6.6.0 by @fontawesome - https://fontawesome.com License - https://fontawesome.com/license (Commercial License) Copyright 2024 Fonticons, Inc. --><path d="M512 32l0 192-192 0 0-192 192 0zm-352 .4l23.7 26 80 88 21.5 23.7-47.4 43.1-21.5-23.7L192 162.8 192 448l0 32-64 0 0-32 0-285.2-24.3 26.8L82.2 213.2 34.8 170.2l21.5-23.7 80-88 23.7-26zM416 288L528 480l-224 0L416 288z"/></svg>

<svg xmlns="http://www.w3.org/2000/svg" viewBox="0 0 576 512"><!--! Font Awesome Pro 6.4.2 by @fontawesome - https://fontawesome.com License - https://fontawesome.com/license (Commercial License) Copyright 2023 Fonticons, Inc. --><path d="M512 32V224H320V32H512zm-352 .4l23.7 26 80 88 21.5 23.7-47.4 43.1-21.5-23.7L192 162.8V448v32H128V448 162.8l-24.3 26.8L82.2 213.2 34.8 170.2l21.5-23.7 80-88 23.7-26zM416 288L528 480H304L416 288z"/></svg>
